src/images/icon/image_dataErrow.svg

<svg height="150" viewBox="0 0 280 150" width="280" xmlns="http://www.w3.org/2000/svg" xmlns:xlink="http://www.w3.org/1999/xlink"><defs><linearGradient id="a"><stop offset="0" stop-color="#dfe7ee"/><stop offset="1" stop-color="#eff4f9" stop-opacity="0"/></linearGradient><linearGradient id="b" x1="53.595264%" x2="50%" xlink:href="#a" y1="63.385399%" y2="100%"/><linearGradient id="c" x1="36.102995%" x2="64.118261%" xlink:href="#a" y1="37.465789%" y2="100%"/><linearGradient id="d" x1="64.98301%" x2="34.618868%" xlink:href="#a" y1="28.769754%" y2="100%"/><linearGradient id="e" x1="50%" x2="50%" xlink:href="#a" y1="0%" y2="27.674164%"/><linearGradient id="f" x1="50%" x2="50%" y1="0%" y2="100%"><stop offset="0" stop-color="#e8eef3"/><stop offset="1" stop-color="#fff"/></linearGradient><linearGradient id="g" x1="50%" x2="48.940909%" y1="43.496372%" y2="58.317864%"><stop offset="0" stop-color="#dfe7ee"/><stop offset="1" stop-color="#f3f6f9"/></linearGradient><linearGradient id="h" x1="37.701956%" x2="39.556151%" y1="44.854513%" y2="57.518693%"><stop offset="0" stop-color="#ebf0f6"/><stop offset="1" stop-color="#eff4f9" stop-opacity="0"/></linearGradient><linearGradient id="i"><stop offset="0" stop-color="#1ee7e7"/><stop offset="1" stop-color="#0080ff"/></linearGradient><linearGradient id="j" x1="-13.81734%" x2="83.326801%" xlink:href="#i" y1="13.667103%" y2="71.419781%"/><path id="k" d="m26.8166992 44.5406733c.9105489 0 1.8591977-.0466666 2.8433256-.14.9806371-.0933333 1.7131251-.1666666 2.1993332-.22l-1.0283387-4.72h2.9115042c1.0737462 0 1.8951679-.2133333 2.4556867-.64.5491411-.4266666.6456008-1.1466666.2995072-2.16-.1812714-.5333333-.4676067-1.04-.8557128-1.52-.383128-.48-.7315388-.8666666-1.046776-1.16h-4.933662l-2.1854263-10.64c-.1434336-.72-.4038878-1.32-.7767265-1.8-.3661009-.48-.8040151-.86-1.3139326-1.14-.5035007-.28-1.0501693-.48-1.6422251-.6-.5886293-.12-1.1883279-.18-1.8016612-.18-.5333334 0-1.1240978.0533334-1.7748939.16-.6542688.1066667-1.237977.24-1.7515686.4l-13.28664028 12.28c-.57217378.4533334-1.05177701.9866667-1.4366924 1.6-.39130387.6133334-.67586882 1.1733334-.84973566 1.68-.31400322.9066667-.25529583 1.6733334.18997175 2.3.46015893.6266667 1.11673952 1.1 1.96712755 1.42h15.54867104l.0273809 2.24c.0068474.64.1442423 1.1466667.4152257 1.52.2746123.3733334.6742407.66 1.1990479.86.5286765.2 1.1818946.3266667 1.9579018.38.7775495.0533334 1.6677048.08 2.6693085.08zm-5.8583341-10.56h-7.5390789l7.1560139-7.52h.1411718z"/><path id="l" d="m77.8166992 49.5406733c.9105489 0 1.8591977-.0466666 2.8433256-.14.9806371-.0933333 1.7131251-.1666666 2.1993332-.22l-1.0283387-4.72h2.9115042c1.0737462 0 1.8951679-.2133333 2.4556867-.64.5491411-.4266666.6456008-1.1466666.2995072-2.16-.1812714-.5333333-.4676067-1.04-.8557128-1.52-.383128-.48-.7315388-.8666666-1.046776-1.16h-4.933662l-2.1854263-10.64c-.1434336-.72-.4038878-1.32-.7767265-1.8-.3661009-.48-.8040151-.86-1.3139326-1.14-.5035007-.28-1.0501693-.48-1.6422251-.6-.5886293-.12-1.1883279-.18-1.8016612-.18-.5333334 0-1.1240978.0533334-1.7748939.16-.6542688.1066667-1.237977.24-1.7515686.4l-13.2866403 12.28c-.5721738.4533334-1.051777.9866667-1.4366924 1.6-.3913038.6133334-.6758688 1.1733334-.8497356 1.68-.3140033.9066667-.2552959 1.6733334.1899717 2.3.4601589.6266667 1.1167395 1.1 1.9671276 1.42h15.548671l.0273809 2.24c.0068474.64.1442423 1.1466667.4152257 1.52.2746123.3733334.6742407.66 1.1990479.86.5286765.2 1.1818946.3266667 1.9579018.38.7775495.0533334 1.6677048.08 2.6693085.08zm-5.8583341-10.56h-7.5390789l7.1560139-7.52h.1411718z"/><linearGradient id="m" x1="-13.074047%" x2="82.938637%" xlink:href="#i" y1="-17.854192%" y2="90.002919%"/><path id="n" d="m47.7265214 28.8606733c2.0689055 0 3.9751876-.28 5.7041986-.84 1.7094809-.56 3.131374-1.38 4.2600676-2.46 1.1016812-1.08 1.8825679-2.42 2.3460101-4.02.4408967-1.6.5075-3.4266666.2167192-5.48-.2907809-2.0533333-.8464906-3.8733333-1.6503608-5.46-.7815125-1.58666662-1.7296635-2.91999995-2.8409618-3.99999995-1.0842859-1.08-2.3117345-1.9-3.6879574-2.46-1.3566928-.56-2.8010488-.84-4.3477155-.84-1.5733333 0-3.0311706.28-4.3881593.84-1.3765188.56-2.6044007 1.38-3.6892573 2.46-1.111869 1.08-2.0535546 2.41333333-2.8211468 3.99999995-.7893908 1.5866667-1.3376511 3.4066667-1.628432 5.46-.2907809 2.0533334-.2323097 3.88.1919001 5.48.4461915 1.6 1.2179562 2.94 2.3190667 4.02 1.1281229 1.08 2.5495827 1.9 4.2587678 2.46 1.7287151.56 3.6526845.84 5.7572608.84zm-.0506527-5.4c-1.5871198 0-2.7751514-.6466666-3.5473514-1.94-.7498751-1.2933333-1.0563007-3.1133333-.9360203-5.46.1202803-2.3466666.577003-4.16 1.3535969-5.44.7544993-1.27999995 1.7948337-1.91999995 3.1375741-1.91999995s2.3967957.64 3.179413 1.91999995c.8056138 1.28 1.2771845 3.0933334 1.3974649 5.44.1202804 2.3466667-.20246 4.1666667-.985648 5.46-.806424 1.2933334-2.0119094 1.94-3.5990292 1.94z"/><linearGradient id="o" x1="50%" x2="50%" xlink:href="#a" y1="0%" y2="132.650821%"/><linearGradient id="p" x1="50%" x2="50%" xlink:href="#a" y1="0%" y2="126.227559%"/></defs><g fill="none" fill-rule="evenodd"><path d="m221.957594 78.0874389c-2.168471 5.7584684-2.546416 9.5897114-1.133832 11.4937292 2.118874 2.8560267 2.489385 5.7056238 1.84394 8.9835039-.430296 2.185253-2.632155 4.816131-6.605575 7.892632 5.682043 2.371288 4.348211 7.683371-4.001495 15.936249-2.992657.175497-5.65953.231212-8.000619.167144.538565-2.932059 1.584783-6.789153 3.138872-11.571417 2.292388-7.05417 4.608258-12.7931695 6.947611-17.2169997-8.563759 12.3349757-13.652256 21.7942167-15.265489 28.3777217-5.422835-.796021-7.88051-2.682405-7.373206-5.658935 1.223637-7.179515 5.074637-7.775876 9.121112-11.14983 2.15238-1.794657 2.299234-3.981073 2.25042-6.1039706l-.014546-.5080427c-.05483-1.6878565-.142224-3.3117505.664465-4.6385792 1.895721-3.1180474 8.609987-1.6684846 10.269015-7.8202962 1.106019-4.1012077 3.825795-6.8288442 8.159327-8.1829094z" fill="url(#b)"/><path d="m60.7585218 122.393553c-7.234619 0-11.8980315-3.236035-13.9902376-9.708106-3.1383091-9.707682-.762932-9.707682 0-9.707682s7.3118707 10.393129 9.2651914 9.707682-5.1815717-13.5975156-5.1815717-23.0796438c0-9.4821283 3.7746662-15.5922992 7.8533652-16.4384762s9.9663285 3.7378629 9.9663285 17.9109527c0 8.7704158 1.8992127 9.7331093 3.231859 8.8408927 1.5468373-1.0356189 3.6079784-13.0828453 8.8237921-13.0828453 6.8666366 0 12.7682588 10.5260716 10.3553031 27.9498309-1.1067137 2.491479-11.2147237 5.027277-30.32403 7.607395z" fill="url(#c)"/><path d="m240.526315 101.568193c-2.308314-1.330547-4.828112-1.242065-8.606995 1.118076-3.778882 2.360141-10.181513 8.395956-13.793451 20.709818l15.136712 4.384659c1.816816-4.78209 4.238061-9.180854 7.263734-13.19629 4.53851-6.023155 2.308314-11.685716 0-13.016263z" fill="url(#d)"/><ellipse cx="140" cy="179" fill="url(#e)" rx="156" ry="67"/><g transform="matrix(.93969262 -.34202014 .34202014 .93969262 62.927087 45.34598)"><path d="m61 0c1.6568542 0 3 1.34314575 3 3 0 1.48625501-1.0807897 2.72007807-2.4993038 2.9584039l-.0006962 4.0415961h-1l.0002947-4.0414298c-1.4190017-.23791761-2.5002947-1.47196914-2.5002947-2.9585702 0-1.65685425 1.3431458-3 3-3z" fill="#e0e8ef"/><circle cx="61" cy="39" fill="url(#f)" r="31"/><ellipse cx="61" cy="52" fill="url(#g)" rx="61" ry="22"/><g fill="#fff"><ellipse cx="41" cy="40" rx="6" ry="4"/><ellipse cx="18.5" cy="56" rx="4.5" ry="3"/><ellipse cx="103.5" cy="56" rx="4.5" ry="3"/><ellipse cx="81" cy="40" rx="6" ry="4"/><ellipse cx="61" cy="57.5" rx="33" ry="11.5"/></g><path d="m33.727265 57.5h54.54547l27.95044 58h-110.44635028z" fill="url(#h)"/></g><g fill-rule="nonzero" transform="translate(107.393479 87.779327)"><g transform="matrix(.96592583 -.25881905 .25881905 .96592583 -7.632769 6.184713)"><use fill="url(#j)" xlink:href="#k"/><use fill="#fff" fill-opacity=".3" xlink:href="#k"/></g><g transform="matrix(.96592583 .25881905 -.25881905 .96592583 12.005288 -17.027868)"><use fill="url(#j)" xlink:href="#l"/><use fill="#fff" fill-opacity=".3" xlink:href="#l"/></g><g transform="matrix(.95105652 .30901699 -.30901699 .95105652 7.305004 -13.960632)"><use fill="url(#m)" xlink:href="#n"/><use fill="#fff" fill-opacity=".3" xlink:href="#n"/></g></g><path d="m58.5 28c-3.0375661 0-5.5-2.4624339-5.5-5.5s2.4624339-5.5 5.5-5.5c.6399775 0 1.2544252.1093056 1.8256928.3102663.9360167-3.0739921 3.794007-5.3102663 7.1743072-5.3102663 4.1421356 0 7.5 3.3578644 7.5 7.5 0 .1780687-.0062057.3546879-.0184126.5296533 1.9816633.2364446 3.5184126 1.9239322 3.5184126 3.9703467 0 2.209139-1.790861 4-4 4z" fill="url(#o)" opacity=".75"/><path d="m115 20c-3.865993 0-7-3.1340068-7-7 0-3.86599325 3.134007-7 7-7 .879935 0 1.721949.16235995 2.497718.45875648 1.267781-3.7552931 4.819318-6.45875648 9.002282-6.45875648 5.246705 0 9.5 4.25329488 9.5 9.5 0 .20064532-.00622.39983782-.018479.5973952 2.291282.4548254 4.018479 2.4770108 4.018479 4.9026048 0 2.7614237-2.238576 5-5 5z" fill="url(#p)" opacity=".75"/></g></svg>

<?xml version="1.0" encoding="UTF-8"?>
<svg width="280px" height="150px" viewBox="0 0 280 150" version="1.1" xmlns="http://www.w3.org/2000/svg" xmlns:xlink="http://www.w3.org/1999/xlink">
    
    <defs>
        <linearGradient x1="53.595264%" y1="63.3853988%" x2="50%" y2="100%" id="linearGradient-1">
            <stop stop-color="#DFE7EE" offset="0%"></stop>
            <stop stop-color="#EFF4F9" stop-opacity="0" offset="100%"></stop>
        </linearGradient>
        <linearGradient x1="36.1029949%" y1="37.4657886%" x2="64.1182611%" y2="100%" id="linearGradient-2">
            <stop stop-color="#DFE7EE" offset="0%"></stop>
            <stop stop-color="#EFF4F9" stop-opacity="0" offset="100%"></stop>
        </linearGradient>
        <linearGradient x1="64.9830103%" y1="28.7697539%" x2="34.6188683%" y2="100%" id="linearGradient-3">
            <stop stop-color="#DFE7EE" offset="0%"></stop>
            <stop stop-color="#EFF4F9" stop-opacity="0" offset="100%"></stop>
        </linearGradient>
        <linearGradient x1="50%" y1="0%" x2="50%" y2="27.6741639%" id="linearGradient-4">
            <stop stop-color="#DFE7EE" offset="0%"></stop>
            <stop stop-color="#EFF4F9" stop-opacity="0" offset="100%"></stop>
        </linearGradient>
        <linearGradient x1="50%" y1="0%" x2="50%" y2="100%" id="linearGradient-5">
            <stop stop-color="#E8EEF3" offset="0%"></stop>
            <stop stop-color="#FFFFFF" offset="100%"></stop>
        </linearGradient>
        <linearGradient x1="50%" y1="43.4963719%" x2="48.9409092%" y2="58.3178638%" id="linearGradient-6">
            <stop stop-color="#DFE7EE" offset="0%"></stop>
            <stop stop-color="#F3F6F9" offset="100%"></stop>
        </linearGradient>
        <linearGradient x1="37.7019556%" y1="44.8545126%" x2="39.5561512%" y2="57.5186926%" id="linearGradient-7">
            <stop stop-color="#EBF0F6" offset="0%"></stop>
            <stop stop-color="#EFF4F9" stop-opacity="0" offset="100%"></stop>
        </linearGradient>
        <linearGradient x1="-13.8173395%" y1="13.6671027%" x2="83.326801%" y2="71.4197813%" id="linearGradient-8">
            <stop stop-color="#1EE7E7" offset="0%"></stop>
            <stop stop-color="#0080FF" offset="100%"></stop>
        </linearGradient>
        <path d="M26.8166992,44.5406733 C27.7272481,44.5406733 28.6758969,44.4940067 29.6600248,44.4006733 C30.6406619,44.30734 31.3731499,44.2340067 31.859358,44.1806733 L30.8310193,39.4606733 L33.7425235,39.4606733 C34.8162697,39.4606733 35.6376914,39.24734 36.1982102,38.8206733 C36.7473513,38.3940067 36.843811,37.6740067 36.4977174,36.6606733 C36.316446,36.12734 36.0301107,35.6206733 35.6420046,35.1406733 C35.2588766,34.6606733 34.9104658,34.2740067 34.5952286,33.9806733 L29.6615666,33.9806733 L27.4761403,23.3406733 C27.3327067,22.6206733 27.0722525,22.0206733 26.6994138,21.5406733 C26.3333129,21.0606733 25.8953987,20.6806733 25.3854812,20.4006733 C24.8819805,20.1206733 24.3353119,19.9206733 23.7432561,19.8006733 C23.1546268,19.6806733 22.5549282,19.6206733 21.9415949,19.6206733 C21.4082615,19.6206733 20.8174971,19.6740067 20.166701,19.7806733 C19.5124322,19.88734 18.928724,20.0206733 18.4151324,20.1806733 L5.12849212,32.4606733 C4.55631834,32.9140067 4.07671511,33.44734 3.69179972,34.0606733 C3.30049585,34.6740067 3.0159309,35.2340067 2.84206406,35.7406733 C2.52806084,36.64734 2.58676823,37.4140067 3.03203581,38.0406733 C3.49219474,38.66734 4.14877533,39.1406733 4.99916336,39.4606733 L20.5478344,39.4606733 L20.5752153,41.7006733 C20.5820627,42.3406733 20.7194576,42.84734 20.990441,43.2206733 C21.2650533,43.5940067 21.6646817,43.8806733 22.1894889,44.0806733 C22.7181654,44.2806733 23.3713835,44.40734 24.1473907,44.4606733 C24.9249402,44.5140067 25.8150955,44.5406733 26.8166992,44.5406733 Z M20.9583651,33.9806733 L13.4192862,33.9806733 L20.5753001,26.4606733 L20.7164719,26.4606733 L20.9583651,33.9806733 Z" id="path-9"></path>
        <path d="M77.8166992,49.5406733 C78.7272481,49.5406733 79.6758969,49.4940067 80.6600248,49.4006733 C81.6406619,49.30734 82.3731499,49.2340067 82.859358,49.1806733 L81.8310193,44.4606733 L84.7425235,44.4606733 C85.8162697,44.4606733 86.6376914,44.24734 87.1982102,43.8206733 C87.7473513,43.3940067 87.843811,42.6740067 87.4977174,41.6606733 C87.316446,41.12734 87.0301107,40.6206733 86.6420046,40.1406733 C86.2588766,39.6606733 85.9104658,39.2740067 85.5952286,38.9806733 L80.6615666,38.9806733 L78.4761403,28.3406733 C78.3327067,27.6206733 78.0722525,27.0206733 77.6994138,26.5406733 C77.3333129,26.0606733 76.8953987,25.6806733 76.3854812,25.4006733 C75.8819805,25.1206733 75.3353119,24.9206733 74.7432561,24.8006733 C74.1546268,24.6806733 73.5549282,24.6206733 72.9415949,24.6206733 C72.4082615,24.6206733 71.8174971,24.6740067 71.166701,24.7806733 C70.5124322,24.88734 69.928724,25.0206733 69.4151324,25.1806733 L56.1284921,37.4606733 C55.5563183,37.9140067 55.0767151,38.44734 54.6917997,39.0606733 C54.3004959,39.6740067 54.0159309,40.2340067 53.8420641,40.7406733 C53.5280608,41.64734 53.5867682,42.4140067 54.0320358,43.0406733 C54.4921947,43.66734 55.1487753,44.1406733 55.9991634,44.4606733 L71.5478344,44.4606733 L71.5752153,46.7006733 C71.5820627,47.3406733 71.7194576,47.84734 71.990441,48.2206733 C72.2650533,48.5940067 72.6646817,48.8806733 73.1894889,49.0806733 C73.7181654,49.2806733 74.3713835,49.40734 75.1473907,49.4606733 C75.9249402,49.5140067 76.8150955,49.5406733 77.8166992,49.5406733 Z M71.9583651,38.9806733 L64.4192862,38.9806733 L71.5753001,31.4606733 L71.7164719,31.4606733 L71.9583651,38.9806733 Z" id="path-10"></path>
        <linearGradient x1="-13.0740468%" y1="-17.8541923%" x2="82.9386373%" y2="90.0029194%" id="linearGradient-11">
            <stop stop-color="#1EE7E7" offset="0%"></stop>
            <stop stop-color="#0080FF" offset="100%"></stop>
        </linearGradient>
        <path d="M47.7265214,28.8606733 C49.7954269,28.8606733 51.701709,28.5806733 53.43072,28.0206733 C55.1402009,27.4606733 56.562094,26.6406733 57.6907876,25.5606733 C58.7924688,24.4806733 59.5733555,23.1406733 60.0367977,21.5406733 C60.4776944,19.9406733 60.5442977,18.1140067 60.2535169,16.0606733 C59.962736,14.00734 59.4070263,12.18734 58.6031561,10.6006733 C57.8216436,9.01400668 56.8734926,7.68067335 55.7621943,6.60067335 C54.6779084,5.52067335 53.4504598,4.70067335 52.0742369,4.14067335 C50.7175441,3.58067335 49.2731881,3.30067335 47.7265214,3.30067335 C46.1531881,3.30067335 44.6953508,3.58067335 43.3383621,4.14067335 C41.9618433,4.70067335 40.7339614,5.52067335 39.6491048,6.60067335 C38.5372358,7.68067335 37.5955502,9.01400668 36.827958,10.6006733 C36.0385672,12.18734 35.4903069,14.00734 35.199526,16.0606733 C34.9087451,18.1140067 34.9672163,19.9406733 35.3914261,21.5406733 C35.8376176,23.1406733 36.6093823,24.4806733 37.7104928,25.5606733 C38.8386157,26.6406733 40.2600755,27.4606733 41.9692606,28.0206733 C43.6979757,28.5806733 45.6219451,28.8606733 47.7265214,28.8606733 Z M47.6758687,23.4606733 C46.0887489,23.4606733 44.9007173,22.8140067 44.1285173,21.5206733 C43.3786422,20.22734 43.0722166,18.40734 43.192497,16.0606733 C43.3127773,13.7140067 43.7695,11.9006733 44.5460939,10.6206733 C45.3005932,9.34067335 46.3409276,8.70067335 47.683668,8.70067335 C49.0264084,8.70067335 50.0804637,9.34067335 50.863081,10.6206733 C51.6686948,11.9006733 52.1402655,13.7140067 52.2605459,16.0606733 C52.3808263,18.40734 52.0580859,20.22734 51.2748979,21.5206733 C50.4684739,22.8140067 49.2629885,23.4606733 47.6758687,23.4606733 Z" id="path-12"></path>
        <linearGradient x1="50%" y1="0%" x2="50%" y2="132.650821%" id="linearGradient-13">
            <stop stop-color="#DFE7EE" offset="0%"></stop>
            <stop stop-color="#EFF4F9" stop-opacity="0" offset="100%"></stop>
        </linearGradient>
        <linearGradient x1="50%" y1="0%" x2="50%" y2="126.227559%" id="linearGradient-14">
            <stop stop-color="#DFE7EE" offset="0%"></stop>
            <stop stop-color="#EFF4F9" stop-opacity="0" offset="100%"></stop>
        </linearGradient>
    </defs>
    <g id="Dashboard" stroke="none" stroke-width="1" fill="none" fill-rule="evenodd">
        <g id="07-概览-404" transform="translate(-690.000000, -192.000000)">
            <g id="Title备份-6" transform="translate(244.000000, 72.000000)">
                <g id="编组-2" transform="translate(432.000000, 120.000000)">
                    <g id="椭圆形" transform="translate(14.000000, 0.000000)">
                        <path d="M221.957594,78.0874389 C219.789123,83.8459073 219.411178,87.6771503 220.823762,89.5811681 C222.942636,92.4371948 223.313147,95.2867919 222.667702,98.564672 C222.237406,100.749925 220.035547,103.380803 216.062127,106.457304 C221.74417,108.828592 220.410338,114.140675 212.060632,122.393553 C209.067975,122.56905 206.401102,122.624765 204.060013,122.560697 C204.598578,119.628638 205.644796,115.771544 207.198885,110.98928 C209.491273,103.93511 211.807143,98.1961105 214.146496,93.7722803 C205.582737,106.107256 200.49424,115.566497 198.881007,122.150002 C193.458172,121.353981 191.000497,119.467597 191.507801,116.491067 C192.731438,109.311552 196.582438,108.715191 200.628913,105.341237 C202.781293,103.54658 202.928147,101.360164 202.879333,99.2372664 L202.864787,98.7292237 C202.809957,97.0413672 202.722563,95.4174732 203.529252,94.0906445 C205.424973,90.9725971 212.139239,92.4221599 213.798267,86.2703483 C214.904286,82.1691406 217.624062,79.4415041 221.957594,78.0874389 Z" id="形状结合" fill="url(#linearGradient-1)"></path>
                        <path d="M60.7585218,122.393553 C53.5239028,122.393553 48.8604903,119.157518 46.7682842,112.685447 C43.6299751,102.977765 46.0053522,102.977765 46.7682842,102.977765 C47.5312162,102.977765 54.0801549,113.370894 56.0334756,112.685447 C57.9867963,112 50.8519039,99.0879314 50.8519039,89.6058032 C50.8519039,80.1236749 54.6265701,74.013504 58.7052691,73.167327 C62.7839681,72.32115 68.6715976,76.9051899 68.6715976,91.0782797 C68.6715976,99.8486955 70.5708103,100.811389 71.9034566,99.9191724 C73.4502939,98.8835535 75.511435,86.8363271 80.7272487,86.8363271 C87.5938853,86.8363271 93.4955075,97.3623987 91.0825518,114.786158 C89.9758381,117.277637 79.8678281,119.813435 60.7585218,122.393553 Z" id="路径-3" fill="url(#linearGradient-2)"></path>
                        <path d="M240.526315,101.568193 C238.218001,100.237646 235.698203,100.326128 231.91932,102.686269 C228.140438,105.04641 221.737807,111.082225 218.125869,123.396087 L233.262581,127.780746 C235.079397,122.998656 237.500642,118.599892 240.526315,114.584456 C245.064825,108.561301 242.834629,102.89874 240.526315,101.568193 Z" id="路径-10" fill="url(#linearGradient-3)"></path>
                        <ellipse fill="url(#linearGradient-4)" cx="140" cy="179" rx="156" ry="67"></ellipse>
                        <g id="编组-10" transform="translate(140.000000, 78.750000) rotate(-20.000000) translate(-140.000000, -78.750000) translate(79.000000, 21.000000)">
                            <g id="编组-7">
                                <path d="M61,0 C62.6568542,0 64,1.34314575 64,3 C64,4.48625501 62.9192103,5.72007807 61.5006962,5.9584039 L61.5,10 L60.5,10 L60.5002947,5.9585702 C59.081293,5.72065259 58,4.48660106 58,3 C58,1.34314575 59.3431458,0 61,0 Z" id="形状结合" fill="#E0E8EF"></path>
                                <circle id="椭圆形" fill="url(#linearGradient-5)" cx="61" cy="39" r="31"></circle>
                                <ellipse id="椭圆形" fill="url(#linearGradient-6)" cx="61" cy="52" rx="61" ry="22"></ellipse>
                                <ellipse id="椭圆形" fill="#FFFFFF" cx="41" cy="40" rx="6" ry="4"></ellipse>
                                <ellipse id="椭圆形备份-4" fill="#FFFFFF" cx="18.5" cy="56" rx="4.5" ry="3"></ellipse>
                                <ellipse id="椭圆形备份-5" fill="#FFFFFF" cx="103.5" cy="56" rx="4.5" ry="3"></ellipse>
                                <ellipse id="椭圆形备份-3" fill="#FFFFFF" cx="81" cy="40" rx="6" ry="4"></ellipse>
                                <ellipse id="椭圆形" fill="#FFFFFF" cx="61" cy="57.5" rx="33" ry="11.5"></ellipse>
                            </g>
                            <polygon id="矩形" fill="url(#linearGradient-7)" points="33.727265 57.5 88.272735 57.5 116.223175 115.5 5.77682472 115.5"></polygon>
                        </g>
                        <g id="编组-3" transform="translate(107.393479, 87.779327)" fill-rule="nonzero">
                            <g id="4" transform="translate(19.672395, 32.080673) rotate(-15.000000) translate(-19.672395, -32.080673) ">
                                <use fill="url(#linearGradient-8)" xlink:href="#path-9"></use>
                                <use fill-opacity="0.3" fill="#FFFFFF" xlink:href="#path-9"></use>
                            </g>
                            <g id="4备份-2" transform="translate(70.672395, 37.080673) rotate(-345.000000) translate(-70.672395, -37.080673) ">
                                <use fill="url(#linearGradient-8)" xlink:href="#path-10"></use>
                                <use fill-opacity="0.3" fill="#FFFFFF" xlink:href="#path-10"></use>
                            </g>
                            <g id="0" transform="translate(47.724481, 16.080673) rotate(18.000000) translate(-47.724481, -16.080673) ">
                                <use fill="url(#linearGradient-11)" xlink:href="#path-12"></use>
                                <use fill-opacity="0.3" fill="#FFFFFF" xlink:href="#path-12"></use>
                            </g>
                        </g>
                        <path d="M58.5,28 C55.4624339,28 53,25.5375661 53,22.5 C53,19.4624339 55.4624339,17 58.5,17 C59.1399775,17 59.7544252,17.1093056 60.3256928,17.3102663 C61.2617095,14.2362742 64.1196998,12 67.5,12 C71.6421356,12 75,15.3578644 75,19.5 C75,19.6780687 74.9937943,19.8546879 74.9815874,20.0296533 C76.9632507,20.2660979 78.5,21.9535855 78.5,24 C78.5,26.209139 76.709139,28 74.5,28 L74.5,28 Z" id="形状结合" fill="url(#linearGradient-13)" opacity="0.75"></path>
                        <path d="M115,20 C111.134007,20 108,16.8659932 108,13 C108,9.13400675 111.134007,6 115,6 C115.879935,6 116.721949,6.16235995 117.497718,6.45875648 C118.765499,2.70346338 122.317036,0 126.5,0 C131.746705,0 136,4.25329488 136,9.5 C136,9.70064532 135.99378,9.89983782 135.981521,10.0973952 C138.272803,10.5522206 140,12.574406 140,15 C140,17.7614237 137.761424,20 135,20 L135,20 Z" id="形状结合备份" fill="url(#linearGradient-14)" opacity="0.75"></path>
                    </g>
                </g>
            </g>
        </g>
    </g>
</svg>
